public/assets/icons/sun.svg

<svg width="16" height="16" viewBox="0 0 16 16" fill="none" xmlns="http://www.w3.org/2000/svg">
<g clip-path="url(#clip0_12_1559)">
<path d="M8.00004 1.33334V2.66668M8.00004 13.3333V14.6667M3.28671 3.28668L4.22671 4.22668M11.7734 11.7733L12.7134 12.7133M1.33337 8.00001H2.66671M13.3334 8.00001H14.6667M4.22671 11.7733L3.28671 12.7133M12.7134 3.28668L11.7734 4.22668M10.6667 8.00001C10.6667 9.47277 9.4728 10.6667 8.00004 10.6667C6.52728 10.6667 5.33337 9.47277 5.33337 8.00001C5.33337 6.52725 6.52728 5.33334 8.00004 5.33334C9.4728 5.33334 10.6667 6.52725 10.6667 8.00001Z" stroke="currentColor" stroke-width="1.33333" stroke-linecap="round" stroke-linejoin="round"/>
</g>
<defs>
<clipPath id="clip0_12_1559">
<rect width="16" height="16" fill="white"/>
</clipPath>
</defs>
</svg>

<svg xmlns="http://www.w3.org/2000/svg" width="16" height="16" fill="none" viewBox="0 0 16 16"><g clip-path="url(#a)"><path stroke="currentColor" stroke-linecap="round" stroke-linejoin="round" stroke-width="1.333" d="M8 1.333v1.334m0 10.666v1.334M3.287 3.287l.94.94m7.546 7.546.94.94M1.333 8h1.334m10.666 0h1.334m-10.44 3.773-.94.94m9.426-9.426-.94.94M10.667 8a2.667 2.667 0 1 1-5.334 0 2.667 2.667 0 0 1 5.334 0"/></g><defs><clipPath id="a"><path fill="#fff" d="M0 0h16v16H0z"/></clipPath></defs></svg>
